img/shops-pros__03.svg

<svg width="60" height="60" viewBox="0 0 60 60" fill="none" xmlns="http://www.w3.org/2000/svg">
<g clip-path="url(#clip0)">
<path d="M59.3921 12.9771L36.0241 0.145516C35.673 -0.0472031 35.2473 -0.0472031 34.8962 0.145516L26.0884 4.98179C25.9025 5.03077 25.729 5.12416 25.5853 5.25828L11.5287 12.9771C11.1538 13.1826 10.9208 13.5763 10.9208 14.0043V29.5234C8.5496 30.265 6.37659 31.5728 4.5698 33.3801C-0.139674 38.0891 -1.34039 45.2714 1.58198 51.2521C1.86579 51.8335 2.56754 52.0747 3.1489 51.7904C3.73072 51.5062 3.9715 50.8044 3.68769 50.2231C1.20478 45.1414 2.22513 39.039 6.22691 35.0372C8.7295 32.5346 12.0565 31.1563 15.5955 31.1563C19.1345 31.1563 22.4615 32.5346 24.9641 35.0372C27.4662 37.5393 28.8446 40.8664 28.8446 44.4053C28.8446 47.9443 27.4662 51.2713 24.9636 53.7739C20.9619 57.7757 14.8594 58.7961 9.77778 56.3131C9.19642 56.0289 8.49467 56.2701 8.21085 56.8515C7.92658 57.4333 8.16737 58.135 8.74918 58.4189C10.9277 59.4836 13.265 60.0009 15.5854 60.0009C19.6334 60.0004 23.6274 58.4248 26.6212 55.431C27.994 54.0582 29.0789 52.4743 29.8466 50.7527L34.8962 53.5254C35.072 53.6219 35.2661 53.67 35.4602 53.67C35.6543 53.67 35.8488 53.6219 36.0241 53.5254L59.3921 40.6942C59.767 40.4882 60 40.0946 60 39.667V31.5229C60 30.8757 59.4754 30.3511 58.8281 30.3511C58.1808 30.3511 57.6562 30.8757 57.6562 31.5229V38.9735L36.6357 50.516V27.5271L43.5731 23.7176V29.7564C43.5731 30.1712 43.7919 30.5548 44.1485 30.7653C44.3325 30.8738 44.5385 30.9283 44.745 30.9283C44.9391 30.9283 45.1336 30.8802 45.3099 30.7832L50.3173 28.027C50.6918 27.821 50.9239 27.4278 50.9239 27.0007V19.681L57.6562 15.9846V22.1484C57.6562 22.7957 58.1808 23.3203 58.8281 23.3203C59.4754 23.3203 60 22.7957 60 22.1484V14.0043C60 13.5768 59.767 13.1826 59.3921 12.9771ZM35.4602 2.50941L56.3932 14.0043L49.79 17.6303L28.8569 6.13536L35.4602 2.50941ZM35.4602 25.4988L14.5271 14.0043L21.3725 10.2452L42.306 21.7396L35.4602 25.4988ZM44.7404 20.4029L23.8073 8.90849L26.4221 7.47248L47.3556 18.9669L44.7404 20.4029ZM26.6212 33.3801C23.6759 30.4348 19.7602 28.813 15.5955 28.813C14.8077 28.813 14.0295 28.8711 13.2646 28.9851V15.9846L34.2924 27.5312V50.5201L30.6427 48.5161C31.002 47.1931 31.1879 45.8134 31.1879 44.4053C31.1879 40.2406 29.566 36.3249 26.6212 33.3801ZM48.5806 26.3081L45.9169 27.7743V22.4308L48.5806 20.9683V26.3081Z" fill="#F04E23"/>
<path d="M58.8281 25.6572C58.5201 25.6572 58.2175 25.7827 57.9996 26.0005C57.7817 26.2184 57.6562 26.5206 57.6562 26.8291C57.6562 27.1372 57.7817 27.4393 57.9996 27.6572C58.2175 27.8756 58.5201 28.0005 58.8281 28.0005C59.1362 28.0005 59.4388 27.8756 59.6567 27.6572C59.8746 27.4393 60 27.1372 60 26.8291C60 26.5206 59.8746 26.2184 59.6567 26.0005C59.4388 25.7827 59.1362 25.6572 58.8281 25.6572Z" fill="#F04E23"/>
<path d="M11.6559 45.5763C11.9557 45.5763 12.256 45.4619 12.4845 45.2335C12.9422 44.7757 12.9422 44.0337 12.4845 43.5759L11.6728 42.7638H18.5988C20.2788 42.7638 21.6457 44.1307 21.6457 45.8107C21.6457 47.4907 20.2788 48.8576 18.5988 48.8576H14.495C13.8477 48.8576 13.3231 49.3822 13.3231 50.0295C13.3231 50.6763 13.8477 51.2009 14.495 51.2009H18.5988C21.5711 51.2009 23.9894 48.783 23.9894 45.8107C23.9894 42.8384 21.5711 40.4205 18.5988 40.4205H11.6728L12.4845 39.6085C12.9422 39.1507 12.9422 38.4087 12.4845 37.9509C12.0272 37.4936 11.2851 37.4936 10.8274 37.9509L8.01485 40.7634C7.55755 41.2212 7.55755 41.9632 8.01485 42.421L10.8274 45.233C11.0562 45.4619 11.3561 45.5763 11.6559 45.5763Z" fill="#F04E23"/>
<path d="M5.39917 55.7752C5.06592 55.7752 4.73495 55.6333 4.50378 55.3582L4.50149 55.3555C4.08493 54.8602 4.14902 54.1213 4.64432 53.7048C5.13962 53.2877 5.8789 53.3518 6.29547 53.8471C6.71158 54.3429 6.64886 55.0831 6.15356 55.4997C5.93338 55.6846 5.66559 55.7752 5.39917 55.7752Z" fill="#F04E23"/>
</g>
<defs>
<clipPath id="clip0">
<rect width="60" height="60" fill="white"/>
</clipPath>
</defs>
</svg>

<svg width="60" height="60" fill="none" xmlns="http://www.w3.org/2000/svg"><g clip-path="url(#clip0)" fill="#F04E23"><path d="M59.392 12.977L36.024.146a1.172 1.172 0 00-1.128 0l-8.808 4.836a1.176 1.176 0 00-.503.276l-14.056 7.72a1.168 1.168 0 00-.608 1.026v15.52A15.512 15.512 0 004.57 33.38a15.596 15.596 0 00-2.988 17.872 1.171 1.171 0 102.106-1.029 13.253 13.253 0 012.539-15.186 13.162 13.162 0 019.368-3.88c3.54 0 6.867 1.378 9.37 3.88a13.162 13.162 0 013.88 9.368c0 3.54-1.379 6.866-3.881 9.369a13.252 13.252 0 01-15.186 2.54 1.171 1.171 0 10-1.029 2.105 15.6 15.6 0 0017.872-2.988 15.59 15.59 0 003.226-4.678l5.05 2.772a1.171 1.171 0 001.127 0l23.368-12.83c.375-.207.608-.6.608-1.028v-8.144a1.172 1.172 0 10-2.344 0v7.45l-21.02 11.543V27.527l6.937-3.81v6.04a1.171 1.171 0 001.737 1.026l5.007-2.756c.375-.206.607-.6.607-1.026v-7.32l6.732-3.696v6.163a1.172 1.172 0 102.344 0v-8.144c0-.427-.233-.821-.608-1.027zM35.46 2.51l20.933 11.495-6.603 3.626L28.857 6.135 35.46 2.51zm0 22.99L14.527 14.004l6.845-3.759L42.306 21.74l-6.846 3.759zm9.28-5.096L23.807 8.908l2.615-1.436 20.934 11.495-2.616 1.436zM26.621 33.38a15.49 15.49 0 00-11.025-4.567c-.788 0-1.566.058-2.331.172v-13L34.292 27.53v22.99l-3.65-2.005a15.67 15.67 0 00.546-4.11A15.49 15.49 0 0026.62 33.38zm21.96-7.072l-2.664 1.466v-5.343l2.664-1.463v5.34z"/><path d="M58.828 25.657c-.308 0-.61.126-.828.343a1.18 1.18 0 00-.344.83 1.175 1.175 0 002.001.827A1.18 1.18 0 0060 26.83c0-.308-.125-.61-.343-.829a1.182 1.182 0 00-.829-.343zM11.656 45.576a1.172 1.172 0 00.829-2l-.812-.812h6.926a3.05 3.05 0 013.047 3.047 3.05 3.05 0 01-3.047 3.047h-4.104a1.172 1.172 0 100 2.343h4.104a5.396 5.396 0 005.39-5.39 5.396 5.396 0 00-5.39-5.39h-6.926l.812-.813a1.172 1.172 0 00-1.658-1.657l-2.812 2.812a1.173 1.173 0 000 1.658l2.812 2.812c.23.229.53.343.829.343zM5.4 55.775c-.334 0-.665-.142-.896-.417l-.003-.002a1.171 1.171 0 111.653.144 1.17 1.17 0 01-.755.275z"/></g><defs><clipPath id="clip0"><path fill="#fff" d="M0 0h60v60H0z"/></clipPath></defs></svg>
